X:50
T:Morpeth Rant
S:Petrie's Second Collection of Strathspey Reels and Country Dances &c.
Z:Steve Wyrick , 6/11/04
N:Petrie's Second Collection, page 17
L:1/8
M:C
R:Reel
K:G
(D/E/F)|G2DC B,G,B,D|ECEG     FDFA    |BGcA dBAG|FGAB A2 GF   |
        G2DC B,G,B,D|ECEG     FDFA    |Bedc BAGF|[B,2D2G2][B,2D2G2][B,2D2G2]::ef|
        gdBG FAce   |dBAG ({G}F2) (ED)|cAcA BGBG|FGAF D2 (D=F)|
        ECEG cBAG   |FDFA     dcBA    |Bgfe dcBA|[B,2D2G2][B,2D2G2][B,2D2G2]:|
